X: 35293
T: Rose Of Lucerne
R: waltz
M: 3/4
K: Dmajor
A2|d2 de fd|A4 F2|G2 E2 A2|F2 D2 A2|
d2 de fd|A4 F2|G2 E2 A2|D4||
d2|c2 cd ec|d2 f2 d2|e2 ef ge|f2 d2 d2|
B2 Bc dB|A2 d2 f2|fe d2 c2|d2 A2|
B2 Bc dB|A2 f2 d2|B2 Bc dB|A2 f2 d2|
B2 Bc dB|A2 d2 f2|fe d2 c2|d4||

